X:092
T:The Humours of Glen              
B:Thomas Robertson's Ms Music Book 1819
Z:Nigel Gatherer
M:4/4
L:1/8
K:Bb
F|BcBA BFFB|dedc dAFA|BcBA BFdF|E/E/E FA B2 B:|
F|Ad d/d/d d2 df|defg afdf|ge g/g/g fdAd|AFFA B2 B:|
d|AFBF dFBF|AFBF AFFd|AFBF dFAF|EFGA B2 Bd|
AFBF dFBF|AFBF AFFA|fgef deBd|EFGA B2 B:|
a|b2 bf a2 af|g2 ge fdBa|b2 bf a2 af|g2 ge f2 fa|
bbbf aaaf|ggge fdBf|gefd AFdF|E/E/E FA B2 B:|
<end>
<start>
